!!!ONB: MCCC : IJH0422_03 : Extracted Monophonic Melody
!!!COM: Haydn, Joseph
!!!OPR: String Quartet in C major
!!!OMV: 3
!!!SCT: Hob.III:72 ; Op.74 No.1
!!!ODT: 1793///
**kern
*thru
*k[]
*a:
*clefF
*M3/4
2.e
=1
2.f
=2
2g
8cc
8a
=3
4g
4cc
4cc
=4
2.cc[
=5
4cc]
4cc#
4dd[
=6
4dd]
4ff
4b
=7
2.cc[
=8
4cc]
4cc#
4dd[
=9
4dd]
4ee
4cc
=10
4b
12ff#
12gg
12aa
4gg
=11
12ff#
12gg
12aa
4gg
12ff#
12gg
12aa
=12
4gg
4gg
4gg
=13
4gg
4r
4r
=14
2.A-
=15
2.c
=16
2.e-
=17
2g-
8e-
8c
=18
2.B-
=19
2.d-
=20
2.f
=21
2a-
8f
8d
=22
2.e-
=23
2.g
=24
2cc
16cc
16b
16cc
16dd
=25
2ee-
4f#
=26
4g
8ff#
8gg
8ee-
8cc
=27
8b
8dd
8ff#
8gg
8ee-
8cc
=28
8b
8dd
8ff#
8gg
8ee-
8cc
=29
4g
8f#
8g
8f#
8g
=30
8g#
8a
8g#
8a
8f
8d
=31
2.e
=32
2.f
=33
2g
8cc
8a
=34
4g
4cc
4cc
=35
2.cc[
=36
4cc]
4cc#
4dd[
=37
4dd]
4ff
4b
=38
2.cc[
=39
4cc]
4dd-
4dd-[
=40
4dd-]
4ff
4b-
=41
4cc
4ee-
4aa-[
=42
4aa-]
4gg
4bb-[
=43
4bb-]
4aa
4ccc[
=44
4ccc]
4bb
4ff#
=45
4gg
8gg
8aa
8bb
8ccc
=46
4ddd
8bb
8ccc
8ddd
8eee
=47
4fff
4fff
4fff
=48
8eee
8ggg
8fff
8eee
8ddd
8ccc
=49
8bb
8aa
8gg
8ff
8ee
8dd
=50
8cc
8ee
8dd
8cc
8b
8a
=51
8g
8ee
8dd
8cc
8b
8a
=52
8g
8gg
8ff
8ee
8dd
8cc
=53
8b
8a
8gg#
8aa
8ff
8dd
=54
2cc
4dd
=55
12gg
12aa
12bb-
4aa
12ee
12ff
12gg
=56
4ff
12dd
12ee
12ff
8ee
8r
=57
12dd
12ee
12ff
12a
12b
12cc
12b
12cc
12dd
=58
4cc
4cc
4cc
=59
4cc
4r
4r
=60
*A:
2.cc#
=61
4dd
4cc#
4dd
=62
2.ee[
=63
4ee]
4gg#
4aa
=64
2.ee
=65
4dd
4cc#
4dd
=66
2.cc#[
=67
4cc#]
4dd#
4ee
=68
2.ee[
=69
4ee]
4ff#
4gg#
=70
4aa
4bb
4ccc#
=71
4b
4cc#
4dd#
=72
4ee
4ee
4ee
=73
2ee
4dd
=74
2ee
4ee#
=75
2.ff#
=76
4gg#
4ff#
4gg#
=77
2.aa[
=78
4aa]
4cc#
4ee
=79
4ee
4dd
4dd
=80
4dd
4cc#
4cc#
=81
4cc#
4b
4b
=82
2b
4b#
=83
2.cc#
=84
4dd
4cc#
4dd
=85
2.ee[
=86
4ee]
4gg#
4aa
=87
2.ff#[
=88
4ff#]
4gg#
4aa
=89
4ee
4aa
4ccc#
=90
4eee
4r
4r
=91
4ff#
4aa
4ddd
=92
4fff#
4r
4r
=93
4eee
4ccc#
4aa
=94
4ee
4ff#
4gg#
=95
4aa
4aa
4aa
=96
4aa
4r
4r
=97
2.b
=98
4cc
4b
4cc
=99
2.b[
=100
4b]
4ee
4dd
=101
2.cc[
=102
4cc]
4b
4a
=103
2.ee
=104
4cc
4b
4a
=105
2.ee
=106
4cc
4b
4a
=107
4ee
4ee
4ee
=108
4r
4b
4b
=109
4r
4g#
4g#
=110
4r
4e
4e
=111
[2.e
=112
2.e]
==
*-
